X:42
T:Murphy's
Z: id:dc-hornpipe-38
M:C|
L:1/8
K:G Major
(3DEF|GABG EFGE|ABcA FGAF|GBdg ecAG|FGAF DEFD|!
GABG EFGE|ABcA FGAF|GBdg ecAF|G2GF G2:|!
Bc|dedc BcdB|efed cdef|gfgd ecAG|FGAF DEFD|!
GABG EFGE|ABcA FGAF|GBdg ecAF|G2GF G2:|!